X: 27066
T: Miss Johnson
R: reel
M: 4/4
K: Gmajor
BcdB G2 BG|DGBG dGBG|BcdB GBAG|FGAB cAdc|
BcdB G2 BG|DGBA BABc|dBcA BGAG|1 FGAB cAFA:|2 FGAB cedc||
Bcde dcBc|dBgB aBgB|Bcde dcBc|A2 af gfed|
Bcde dcBc|dBgB aBgB|f2 fe defg|a2 ag fdcA|
Bcde dcBc|dBgB bBgB|Bcde dcBc|A2 af gfed|
Bcde dcBc|dBgB aBge|f2 fe defg|a2 ag fdcA||

